svgs/1F619.svg

<svg xmlns="http://www.w3.org/2000/svg" xmlns:xlink="http://www.w3.org/1999/xlink" preserveAspectRatio="none" viewBox="0 0 72 72"><defs><path id="a" fill="#2F2F2F" d="M38.75 53.4q-1.2 2.2-.95 4.65.05.6.55 2.25.3 1.5-.3 2.1-3.35 3.4-1.9 7.7.4 1.2 2.1 3.75 1.6 2.35 1.9 3.85.35 1.65 2.6 2.15 2 .4 3.65-.3 1.2-.5.25-2.35-.55-1.1-1.65-2.35-.5-.6-2.45-2-1.65-1.15-2.15-2.2-.55-1.2-.2-3 .4-1.75 1.45-2.55.55-.4 1.35-.5.25-.05 1.45-.05.5 0 1.5.05.9 0 1.4-.3.3-.25.4-.55.15-.4 0-.8-.15-.5-.5-.7-2.1-.9-3.05-1.35-1.65-.8-2.1-2.4-.35-1.3-.05-2.75.3-1.55 1.25-2.4 1.05-.95 3.2-.9 1.2.05 3.5.25 1.45.1 2.35-.55.65-.4.55-1.2-.1-.7-.7-1.25-.95-.9-2.45-.6-4.25.4-6.25.8-3.45.75-4.75 3.5z"/><path id="b" fill="#2F2F2F" d="M42.75 37.7q1.05 1.05 1.7 2.25.35.75 1.05 1.15.7.45 1.45.4.65 0 1.15-.3 1.05-.5 1.4-1.6.4-1.1-.1-2.1-1-2.05-2.9-3.9-3.7-3.6-8.65-3.55h-.05q-4.9.15-8.5 3.85-1.8 1.9-2.7 3.95-.5 1.05-.05 2.15.4 1.05 1.4 1.55 1.05.5 2.15.05 1.05-.4 1.5-1.45.55-1.15 1.6-2.25 2.05-2.15 4.75-2.2 2.65-.05 4.8 2z"/><path id="c" fill="#2F2F2F" d="M87.8 49q.7-.95.6-2.1-.35-2.5-1.7-5.05-2.65-5.05-7.8-6.7-5.15-1.6-10.2 1.05-4.05 3.05-4.2 3.2-.8.85-.7 2 .05 1.15.9 1.95.8.8 1.95.75 1.15-.1 1.95-.95l2.5-1.9q3.15-1.7 6.2-.75 3 1 4.6 4.05.8 1.55 1 3.05.15 1.1.95 1.8.8.7 1.85.65h.3q1.1-.15 1.8-1.05z"/><path id="d" fill="#FCC21B" d="M127.85 93.4q0-27-8.5-47.1Q103.75 9.6 64 9.6T8.65 46.3Q.1 66.4.1 93.4q0 10.4 18.7 17.7 18.7 7.35 45.2 7.35 26.45 0 45.15-7.35 18.7-7.3 18.7-17.7z"/><path id="e" fill="#2F2F2F" d="M51.4 48.8q-4.65-3.7-10.8-3.7-6.1 0-10.75 3.7-2.35 1.85-3.6 3.9-.55 1-.3 2.05.3 1.1 1.25 1.65.95.6 2.05.3 1.1-.25 1.7-1.2.85-1.35 2.45-2.6 3.1-2.4 7.2-2.35 4.15 0 7.25 2.4 1.6 1.2 2.45 2.55.75 1.3 2.35 1.3.75 0 1.4-.35.95-.6 1.25-1.7.25-1.1-.3-2.05-1.25-2.05-3.6-3.9z"/><path id="f" fill="#2F2F2F" d="M98.35 48.75q-4.65-3.7-10.75-3.7-6.15 0-10.8 3.7-3.5 3.8-3.6 3.95-.55 1-.3 2.05.3 1.1 1.25 1.65.95.6 2.1.3 1.1-.25 1.65-1.25l2.35-2.5q3.15-2.45 7.35-2.45 4.1 0 7.25 2.4 1.6 1.2 2.4 2.55.8 1.35 2.35 1.35.7 0 1.4-.4.95-.55 1.25-1.65.25-1.1-.3-2.05-1.25-2.05-3.6-3.95z"/><path id="g" fill="#2F2F2F" d="M63.9 67.7q-1.6.4-2.65 1.1-1.35.85-1.2 1.8.15.9 1.6 1.2.8.15 2.5.15 3.7 0 5.05 1.1.7.5.75 1.95.05.8-.7 1.75-1.05 1.35-3.2 1.85-1.1.3-1.75 1-.75.85-.45 1.85.4 1.25 1.8 1.5l.6.15q4.25.85 4.85 2.9.15.45 0 1.2-.2.7-.45 1-1.15 1.4-2.85 2.15-1.4.6-3.7.95-4.05.5-4 2.05.05 1 1.5 1.6 1.2.45 2.6.45 7.4 0 10.6-3.9 2.2-2.65 1.6-6.3-.45-2.7-3.85-4.8 2.8-2.7 2.7-5.55-.05-3.5-2.8-5.75-1.45-1.2-4.05-1.6-2.4-.3-4.5.2z"/></defs><use transform="scale(.5625)" xlink:href="#a"/><use transform="scale(.5625)" xlink:href="#b"/><use transform="scale(.5625)" xlink:href="#c"/><use transform="scale(.5625)" xlink:href="#d"/><use transform="scale(.5625)" xlink:href="#e"/><use transform="scale(.5625)" xlink:href="#f"/><use transform="scale(.5625)" xlink:href="#g"/></svg>

<svg xmlns="http://www.w3.org/2000/svg" version="1.1" xmlns:xlink="http://www.w3.org/1999/xlink" preserveAspectRatio="none" x="0px" y="0px" width="72px" height="72px" viewBox="0 0 72 72">
<defs>
<g id="Layer0_0_MEMBER_0_FILL">
<path fill="#2F2F2F" stroke="none" d="
M 38.75 53.4
Q 37.55 55.6 37.8 58.05 37.85 58.65 38.35 60.3 38.65 61.8 38.05 62.4 34.7 65.8 36.15 70.1 36.55 71.3 38.25 73.85 39.85 76.2 40.15 77.7 40.5 79.35 42.75 79.85 44.75 80.25 46.4 79.55 47.6 79.05 46.65 77.2 46.1 76.1 45 74.85 44.5 74.25 42.55 72.85 40.9 71.7 40.4 70.65 39.85 69.45 40.2 67.65 40.6 65.9 41.65 65.1 42.2 64.7 43 64.6 43.25 64.55 44.45 64.55 44.95 64.55 45.95 64.6 46.85 64.6 47.35 64.3 47.65 64.05 47.75 63.75 47.9 63.35 47.75 62.95 47.6 62.45 47.25 62.25 45.15 61.35 44.2 60.9 42.55 60.1 42.1 58.5 41.75 57.2 42.05 55.75 42.35 54.2 43.3 53.35 44.35 52.4 46.5 52.45 47.7 52.5 50 52.7 51.45 52.8 52.35 52.15 53 51.75 52.9 50.95 52.8 50.25 52.2 49.7 51.25 48.8 49.75 49.1 45.5 49.5 43.5 49.9 40.05 50.65 38.75 53.4 Z"/>
</g>

<g id="Layer0_0_MEMBER_1_MEMBER_0_FILL">
<path fill="#2F2F2F" stroke="none" d="
M 42.75 37.7
Q 43.8 38.75 44.45 39.95 44.8 40.7 45.5 41.1 46.2 41.55 46.95 41.5 47.6 41.5 48.1 41.2 49.15 40.7 49.5 39.6 49.9 38.5 49.4 37.5 48.4 35.45 46.5 33.6 42.8 30 37.85 30.05
L 37.8 30.05
Q 32.9 30.2 29.3 33.9 27.5 35.8 26.6 37.85 26.1 38.9 26.55 40 26.95 41.05 27.95 41.55 29 42.05 30.1 41.6 31.15 41.2 31.6 40.15 32.15 39 33.2 37.9 35.25 35.75 37.95 35.7 40.6 35.65 42.75 37.7 Z"/>
</g>

<g id="Layer0_0_MEMBER_1_MEMBER_1_FILL">
<path fill="#2F2F2F" stroke="none" d="
M 87.8 49
Q 88.5 48.05 88.4 46.9 88.05 44.4 86.7 41.85 84.05 36.8 78.9 35.15 73.75 33.55 68.7 36.2 64.65 39.25 64.5 39.4 63.7 40.25 63.8 41.4 63.85 42.55 64.7 43.35 65.5 44.15 66.65 44.1 67.8 44 68.6 43.15
L 71.1 41.25
Q 74.25 39.55 77.3 40.5 80.3 41.5 81.9 44.55 82.7 46.1 82.9 47.6 83.05 48.7 83.85 49.4 84.65 50.1 85.7 50.05
L 86 50.05
Q 87.1 49.9 87.8 49 Z"/>
</g>

<g id="Layer0_1_FILL">
<path fill="#FCC21B" stroke="none" d="
M 127.85 93.4
Q 127.85 66.4 119.35 46.3 103.75 9.6 64 9.6 24.25 9.6 8.65 46.3 0.1 66.4 0.1 93.4 0.1 103.8 18.8 111.1 37.5 118.45 64 118.45 90.45 118.45 109.15 111.1 127.85 103.8 127.85 93.4 Z"/>
</g>

<g id="Layer0_2_MEMBER_0_FILL">
<path fill="#2F2F2F" stroke="none" d="
M 51.4 48.8
Q 46.75 45.1 40.6 45.1 34.5 45.1 29.85 48.8 27.5 50.65 26.25 52.7 25.7 53.7 25.95 54.75 26.25 55.85 27.2 56.4 28.15 57 29.25 56.7 30.35 56.45 30.95 55.5 31.8 54.15 33.4 52.9 36.5 50.5 40.6 50.55 44.75 50.55 47.85 52.95 49.45 54.15 50.3 55.5 51.05 56.8 52.65 56.8 53.4 56.8 54.05 56.45 55 55.85 55.3 54.75 55.55 53.65 55 52.7 53.75 50.65 51.4 48.8 Z"/>
</g>

<g id="Layer0_2_MEMBER_1_FILL">
<path fill="#2F2F2F" stroke="none" d="
M 98.35 48.75
Q 93.7 45.05 87.6 45.05 81.45 45.05 76.8 48.75 73.3 52.55 73.2 52.7 72.65 53.7 72.9 54.75 73.2 55.85 74.15 56.4 75.1 57 76.25 56.7 77.35 56.45 77.9 55.45
L 80.25 52.95
Q 83.4 50.5 87.6 50.5 91.7 50.5 94.85 52.9 96.45 54.1 97.25 55.45 98.05 56.8 99.6 56.8 100.3 56.8 101 56.4 101.95 55.85 102.25 54.75 102.5 53.65 101.95 52.7 100.7 50.65 98.35 48.75 Z"/>
</g>

<g id="Layer0_3_FILL">
<path fill="#2F2F2F" stroke="none" d="
M 63.9 67.7
Q 62.3 68.1 61.25 68.8 59.9 69.65 60.05 70.6 60.2 71.5 61.65 71.8 62.45 71.95 64.15 71.95 67.85 71.95 69.2 73.05 69.9 73.55 69.95 75 70 75.8 69.25 76.75 68.2 78.1 66.05 78.6 64.95 78.9 64.3 79.6 63.55 80.45 63.85 81.45 64.25 82.7 65.65 82.95
L 66.25 83.1
Q 70.5 83.95 71.1 86 71.25 86.45 71.1 87.2 70.9 87.9 70.65 88.2 69.5 89.6 67.8 90.35 66.4 90.95 64.1 91.3 60.05 91.8 60.1 93.35 60.15 94.35 61.6 94.95 62.8 95.4 64.2 95.4 71.6 95.4 74.8 91.5 77 88.85 76.4 85.2 75.95 82.5 72.55 80.4 75.35 77.7 75.25 74.85 75.2 71.35 72.45 69.1 71 67.9 68.4 67.5 66 67.2 63.9 67.7 Z"/>
</g>
</defs>

<g id="Layer_1">
<g transform="matrix( 0.5625, 0, 0, 0.5625, 0,0) ">
<use xlink:href="#Layer0_0_MEMBER_0_FILL"/>
</g>

<g transform="matrix( 0.5625, 0, 0, 0.5625, 0,0) ">
<use xlink:href="#Layer0_0_MEMBER_1_MEMBER_0_FILL"/>
</g>

<g transform="matrix( 0.5625, 0, 0, 0.5625, 0,0) ">
<use xlink:href="#Layer0_0_MEMBER_1_MEMBER_1_FILL"/>
</g>

<g transform="matrix( 0.5625, 0, 0, 0.5625, 0,0) ">
<use xlink:href="#Layer0_1_FILL"/>
</g>

<g transform="matrix( 0.5625, 0, 0, 0.5625, 0,0) ">
<use xlink:href="#Layer0_2_MEMBER_0_FILL"/>
</g>

<g transform="matrix( 0.5625, 0, 0, 0.5625, 0,0) ">
<use xlink:href="#Layer0_2_MEMBER_1_FILL"/>
</g>

<g transform="matrix( 0.5625, 0, 0, 0.5625, 0,0) ">
<use xlink:href="#Layer0_3_FILL"/>
</g>
</g>
</svg>
